images/svg/icons-home.svg

<svg width="76" height="73" viewBox="0 0 76 73" fill="none" xmlns="http://www.w3.org/2000/svg">
<path fill-rule="evenodd" clip-rule="evenodd" d="M38.0001 0.378662L0.439453 37.9393L2.56077 40.0606L10.0001 32.6213V70H6.00011V73H71.0001V70H66.0001V32.6213L73.4395 40.0606L75.5608 37.9393L66.0001 28.3787V0.999982H52.0001V14.3787L38.0001 0.378662ZM55.0001 17.3787L63.0001 25.3787V3.99998H55.0001V17.3787ZM63.0001 29.6213L38.0001 4.6213L13.0001 29.6213V70H63.0001V29.6213ZM30 42V66H46V42H30ZM33 63V45H43V63H33ZM17 42H20V46H17V42ZM26 42H23V46H26V42ZM17 48H20V52H17V48ZM26 48H23V52H26V48ZM50 42H53V46H50V42ZM59 42H56V46H59V42ZM50 48H53V52H50V48ZM59 48H56V52H59V48ZM33 28C33 25.2386 35.2386 23 38 23C40.7614 23 43 25.2386 43 28C43 30.7614 40.7614 33 38 33C35.2386 33 33 30.7614 33 28ZM38 20C33.5817 20 30 23.5817 30 28C30 32.4183 33.5817 36 38 36C42.4183 36 46 32.4183 46 28C46 23.5817 42.4183 20 38 20Z" fill="black"/>
</svg>

<svg xmlns="http://www.w3.org/2000/svg" width="76" height="73" fill="none"><path fill="#000" fill-rule="evenodd" d="M38 .379.44 37.939l2.12 2.122L10 32.62V70H6v3h65v-3h-5V32.621l7.44 7.44 2.12-2.122L66 28.38V1H52v13.379l-14-14Zm17 17 8 8V4h-8v13.379Zm8 12.242-25-25-25 25V70h50V29.621ZM30 42v24h16V42H30Zm3 21V45h10v18H33ZM17 42h3v4h-3v-4Zm9 0h-3v4h3v-4Zm-9 6h3v4h-3v-4Zm9 0h-3v4h3v-4Zm24-6h3v4h-3v-4Zm9 0h-3v4h3v-4Zm-9 6h3v4h-3v-4Zm9 0h-3v4h3v-4ZM33 28a5 5 0 1 1 10 0 5 5 0 0 1-10 0Zm5-8a8 8 0 1 0 0 16 8 8 0 0 0 0-16Z" clip-rule="evenodd"/></svg>
